X:1
T:Madre, la de los primores
T:Juana Inés de la Cruz (1648-1695) Edited by Jonathan Goodliffe with emendations by Mick Swithinbank
T:Madre, la de los primores
T:A 4
T:Copyright © 
T:Copyright © 
T:Copyright © 
T:Copyright © 
C:Juana Inés de la Cruz (1648-1695)
C:Edited by Jonathan Goodliffe with emendations by Mick Swithinbank
Z:Copyright ©
%%score [ 1 2 3 4 ]
L:1/8
M:4/4
K:F
V:1 treble nm="Tiple 1 [Soprano]" snm="S."
V:2 treble nm="Tiple 2" snm="S."
V:3 treble nm="Alto" snm="A."
V:4 treble-8 transpose=-12 nm="Basso [Tenor]" snm="T."
V:1
 z2 B3 Bcc | d2 d2 d4 | d4 z2 BB | c2 A2 B2 F2 | G8 | c4 z2 c2 | B3 B A4 | G3 A B2 c2 | A4 z2 d2 | %9
w: Ma- dre, la de|los pri- mo-|res, la que\_es|vir- gen sien- do|ma-|dre. La|ma- dre de|tan- tas hi- *|jas, y|
 d3 d c4- | c2 BB A4 | B8 ||[M:3/4] z6 | B3 c d2 | _e4 d2 | c3 c B2 | A4 B2 | G4 z2 | G3 A B2 | %19
w: ma- dre de-|* tan- tos pa-|dres.||Go- za\_hoy en|tu tem-|plo fe- li-|ci- da-|des,|go- za\_hoy en|
 c4 B2 | A3 A B2 | A4 d2 | c2 c2 c2 | B6 | A4 A2 | z2 d3 d | B2 B2 B2 | c4 c2 | A2 A2 A2 | B4 B2 | %30
w: tu tem-|plo fe- li-|ci- da-|des, fe- li-|ci-|da- des,|pues de|tu\_es- po- so|e- res|di- vi- no\_A-|tlan- te,|
 z2 _e3 e | _e2 e2 e2 | d2 d2 d2 | d4 d2 | z2 c3 B | A2 A2 A2 | B2 B2 B2- | B2 A2 A2 | G6- | %39
w: pues de|tu\_es- po- so|di- vi- no\_A-|tlan- te,|pues de|tu\_es- po- so\_e-|res di- vi-|* no A-|tlan-|
 G2 G4 | z2 A4 | B2 G2 c2 | B2 A2 G2 | A6 | B6 |] %45
w: * te,|di-|vi- no A-|tlan- te, A-|tlan-|te.|
V:2
 z2 G3 GAA | B3 B A4 | B4 z2 dd | _e2 c2 d3 c | B8 | A4 z2 A2 | d3 d c4 | B3 A G4 | ^F2 A2 A2 A2 | %9
w: Ma- dre, la de|los pri- mo-|res, la que\_es|vir- gen sien- do|ma-|dre. La|ma- dre de|tan- tas hi-|jas, y ma- dre|
 B4 G2 G2 | d8 | d8 ||[M:3/4] z6 | z6 | z6 | z6 | z6 | B3 c d2 | _e4 d2 | c3 A B2 | c4 d2 | %21
w: de tan- tos|pa-|dres.||||||Go- za\_hoy en|tu tem-|plo fe- li-|ci- da-|
 c3 c B2 | A6 | d6 | d4 A2 | B2 F4 | G4 D2 | z6 | z6 | z2 d3 d | B2 B2 B2 | c2 c3 B | A2 A4 | B6 | %34
w: des, fe- li-|ci-|da-|des, fe-|;i- ci-|da- des,|||pues de|tu\_es- po- so|e- res di-|vi- no\_A-|tlan-|
 G4 G2 | c4 c2 | z2 d4 | B2 d2 d2- | d2 G4 | z2 c3 c | A2 A2 d2 | d2 _e3 e | d2 d4 | d6 | d6 |] %45
w: te, A-|tlan- te,|di-|vi- no\_A- tlan-|* te,|pues de|tu\_es- po- so|e- res di-|vi- no\_A-|tlan-|te.|
V:3
 z2 D3 D_EE | D2 G4 ^F2 | G4 z2 GG | G2 F2 D_E F2- | F2 ED E4 | F2 C2 F4- | F2 D2 F4 | B,C D4 C2 | %8
w: Ma- dre, la de|los pri- mo-|res, la que\_es|vir- gen sien- do ma-||dre. La ma-|* dre de|tan- * tas hi-|
 D4 z2 F2 | F2 D2 E4 | FD G4 ^F2 | G8 ||[M:3/4] D3 E ^F2 | G4 ^F2 | G4 z2 | C3 D E2 | F4 _E2 | D6 | %18
w: jas, y|ma- dre de|tan- tos pa- *|dres|Go- za\_hoy en|tu tem-|plo,|go- za\_hoy en|tu tem-|plo,|
 z6 | E3 F G2 | A2 F4 | F6 | F2 F2 A2 | G6 | ^F2 F4 | D6 | z2 G3 G | E2 E2 E2 | F4 E2 | D2 D2 D2 | %30
w: |go- za\_hoy en|tu tem-|plo|fe- li- ci-|da-|des, go-|za,|pues de|tu\_es po- so|e- res|di- vi no\_A-|
 G6- | G6 | F2 F2 F2- | F2 F4 | F4 E2 | F2 F3 F | D4 D2 | _E2 D4- | D2 C2 B,2 | C6 | D4 F2 | %41
w: tlan-||te, di- vi-|* no|A- tlan-|te, pues de|tu es-|po- so|_ e- *||res di-|
 D2 _E2 ^F2 | G2 ^F2 E2 | ^F6 | G6 |] %45
w: vi- no *|tlan- * *||te.|
V:4
"^[Prosody of \"bass\" part is editorial. It may have been intended as accompaniment]" z2 G3 Gcc | %1
w: Ma- dre, la de|
 B2 G2 d4 | G4 z2 GG | c2 F2 B3 A | G8 | F4 z2 F2 | B3 B F4 | G3 F _E4 | D2 d2 d2 d2 | B4 c2 c2 | %10
w: los pri- mo-|res, la que\_es|vir- gen sien- do|ma-|dre. La|ma- dre de|tan- tas hi-|jas y ma- dre|de tan- tos|
 d8 | G8 ||[M:3/4] B3 c d2 | _e4 d2 | c3 c B2 | A4 G2 | d4 z2 | G3 A B2 | c4 B2 | A3 A G2 | F4 B2 | %21
w: pa-|dres.|Go- za\_hoy en|tu tem-|plo, en tu|tem- *|plo,|go- za\_hoy en|tu tem-|plo fe- li-|ci- da-|
 F3 F B2 | F6 | G6 | d6 | z2 B3 B | G2 G4 | c4 c2 | z2 d4 | B4 B2 | z2 _e3 e | c2 c2 c2 | d2 d3 c | %33
w: des, fe- li-|ci-|da-|des,|pues de|tu\_es- po-|* so|es-|po- so,|pues de|tu\_es- po- so|e- res di-|
 B2 B4 | c6 | F6 | %36
w: vi- no\_A-|tlan-|te,|
"^TEXT OF ALL SIX VERSESMadre, la de los primores, la que es virgen siendo madre, la madre de tantas hijas, y madre de tantos padres.Goza hoy en tu templo felicidades, pues de tu esposo eres divino Atlante.Señora reformadora, la que a sus benditos frailes, los trae por esos desiertos, al sol, a la nieve,  al aire.Goza hoy en tu templo felicidades, pues de tu esposo eres divino Atlante.El premio de sus trabajos paga el cielo conmandarle, que para que al cielo suban, les haga que descalsen.Goza hoy en tu templo felicidades, pues de tu esposo eres divino Atlante.Quien la vido [vió?] y la ve agora [ahora?] andar por sotos,  y valles entonces, y en esas fiestas ocupar mil altares.Goza hoy en tu templo felicidades, pues de tu esposo eres divino Atlante.Por dios my señora monja, que supo de amor los lances, pues se hechó la cruz a cuestas por seguir bien a su amante.Goza hoy en tu templo felicidades, pues de tu esposo eres divino Atlante.Descanse muy en buen hora en el templo que le hace, quien amante solicita que de trabajar descanse.Goza hoy en tu templo felicidades, pues de tu esposo eres divino Atlante." z2 G2 G2- | %37
w: di- vi-|
 G4 F2 | _E6- | E6 | D2 d4 | B2 c4 | d6- | d6 | G6 |] %45
w: * no\_A-|tlan-||te, di-|vi- no\_A-|tlan-||te.|

